src/static/logos/aws-cognito.svg

<svg width="256" height="299" xmlns="http://www.w3.org/2000/svg" preserveAspectRatio="xMidYMid"><path d="M208.752 58.061l25.771-6.636.192.283.651 155.607-.843.846-5.31.227-20.159-3.138-.302-.794V58.061M59.705 218.971l.095.007 68.027 19.767.173.133.296.236-.096 59.232-.2.252-68.295-33.178v-46.449" fill="#7A3E65"/><path d="M208.752 204.456l-80.64 19.312-40.488-9.773-27.919 4.976L128 238.878l105.405-28.537 1.118-2.18-25.771-3.705" fill="#CFB2C1"/><path d="M196.295 79.626l-.657-.749-66.904-19.44-.734.283-.672-.343L22.052 89.734l-.575.703.845.463 24.075 3.53.851-.289 80.64-19.311 40.488 9.773 27.919-4.977" fill="#512843"/><path d="M47.248 240.537l-25.771 6.221-.045-.149-1.015-155.026 1.06-1.146 25.771 3.704v146.396" fill="#C17B9E"/><path d="M82.04 180.403l45.96 5.391.345-.515.187-71.887-.532-.589-45.96 5.392v62.208" fill="#7A3E65"/><path d="M173.96 180.403L128 185.794v-72.991l45.96 5.392v62.208m22.335-100.777L128 59.72V0l68.295 33.177v46.449" fill="#C17B9E"/><path d="M128 0L0 61.793v175.011l21.477 9.954V90.437L128 59.72V0" fill="#7A3E65"/><path d="M234.523 51.425v156.736L128 238.878v59.72l128-61.794V61.793l-21.477-10.368" fill="#C17B9E"/></svg>

<?xml version="1.0" encoding="UTF-8" standalone="no"?>
<svg width="256px" height="299px" viewBox="0 0 256 299" version="1.1" xmlns="http://www.w3.org/2000/svg" xmlns:xlink="http://www.w3.org/1999/xlink" preserveAspectRatio="xMidYMid">
	<g>
		<path d="M208.752,58.061 L234.523,51.425 L234.715,51.708 L235.366,207.315 L234.523,208.161 L229.213,208.388 L209.054,205.25 L208.752,204.456 L208.752,58.061" fill="#7A3E65"></path>
		<path d="M59.705,218.971 L59.8,218.978 L127.827,238.745 L128,238.878 L128.296,239.114 L128.2,298.346 L128,298.598 L59.705,265.42 L59.705,218.971" fill="#7A3E65"></path>
		<path d="M208.752,204.456 L128.112,223.768 L87.624,213.995 L59.705,218.971 L128,238.878 L233.405,210.341 L234.523,208.161 L208.752,204.456" fill="#CFB2C1"></path>
		<path d="M196.295,79.626 L195.638,78.877 L128.734,59.437 L128,59.72 L127.328,59.377 L22.052,89.734 L21.477,90.437 L22.322,90.9 L46.397,94.43 L47.248,94.141 L127.888,74.83 L168.376,84.603 L196.295,79.626" fill="#512843"></path>
		<path d="M47.248,240.537 L21.477,246.758 L21.432,246.609 L20.417,91.583 L21.477,90.437 L47.248,94.141 L47.248,240.537" fill="#C17B9E"></path>
		<path d="M82.04,180.403 L128,185.794 L128.345,185.279 L128.532,113.392 L128,112.803 L82.04,118.195 L82.04,180.403" fill="#7A3E65"></path>
		<path d="M173.96,180.403 L128,185.794 L128,112.803 L173.96,118.195 L173.96,180.403" fill="#C17B9E"></path>
		<path d="M196.295,79.626 L128,59.72 L128,0 L196.295,33.177 L196.295,79.626" fill="#C17B9E"></path>
		<path d="M128,0 L0,61.793 L0,236.804 L21.477,246.758 L21.477,90.437 L128,59.72 L128,0" fill="#7A3E65"></path>
		<path d="M234.523,51.425 L234.523,208.161 L128,238.878 L128,298.598 L256,236.804 L256,61.793 L234.523,51.425" fill="#C17B9E"></path>
	</g>
</svg>
